public/images/home/free.svg

<svg width="565" height="158" viewBox="0 0 565 158" fill="none" xmlns="http://www.w3.org/2000/svg">
<path d="M6.56084 0.778093H119.198C120.837 0.778093 122.253 1.37406 123.445 2.566C124.637 3.75793 125.233 5.17335 125.233 6.81225V40.7823C125.233 42.4212 124.637 43.8367 123.445 45.0286C122.253 46.2205 120.837 46.8165 119.198 46.8165H55.2811V63.3546H114.729C116.368 63.3546 117.783 63.9505 118.975 65.1424C120.167 66.3344 120.763 67.7498 120.763 69.3887V103.135C120.763 104.774 120.167 106.19 118.975 107.382C117.783 108.573 116.368 109.169 114.729 109.169H55.2811V151.185C55.2811 152.824 54.6851 154.239 53.4932 155.431C52.3012 156.623 50.8858 157.219 49.2469 157.219H6.56084C4.92193 157.219 3.50651 156.623 2.31458 155.431C1.12264 154.239 0.526678 152.824 0.526678 151.185V6.81225C0.526678 5.17335 1.12264 3.75793 2.31458 2.566C3.50651 1.37406 4.92193 0.778093 6.56084 0.778093ZM281.469 149.844C281.916 150.738 282.14 151.707 282.14 152.749C282.14 153.792 281.618 154.835 280.576 155.878C279.682 156.772 278.564 157.219 277.223 157.219H231.408C226.79 157.219 223.586 155.208 221.798 151.185L202.578 108.499H193.415V151.185C193.415 152.824 192.82 154.239 191.628 155.431C190.436 156.623 189.02 157.219 187.381 157.219H143.578C141.939 157.219 140.523 156.623 139.332 155.431C138.14 154.239 137.544 152.824 137.544 151.185V6.81225C137.544 5.17335 138.14 3.75793 139.332 2.566C140.523 1.37406 141.939 0.778093 143.578 0.778093H209.73C231.185 0.778093 247.946 5.62032 260.015 15.3048C272.083 24.8402 278.117 38.622 278.117 56.6499C278.117 74.5289 270.072 88.6086 253.981 98.889L281.469 149.844ZM193.415 42.3467V66.0364H209.73C213.008 66.0364 215.541 64.9935 217.329 62.9076C219.117 60.6727 220.01 57.9164 220.01 54.6385C220.01 51.3607 219.117 48.5299 217.329 46.146C215.69 43.6132 213.157 42.3467 209.73 42.3467H193.415ZM345.876 113.639H414.71C416.349 113.639 417.764 114.235 418.956 115.427C420.148 116.619 420.744 118.034 420.744 119.673V151.185C420.744 152.824 420.148 154.239 418.956 155.431C417.764 156.623 416.349 157.219 414.71 157.219H298.273C296.634 157.219 295.219 156.623 294.027 155.431C292.835 154.239 292.239 152.824 292.239 151.185V6.81225C292.239 5.17335 292.835 3.75793 294.027 2.566C295.219 1.37406 296.634 0.778093 298.273 0.778093H412.922C414.561 0.778093 415.976 1.37406 417.168 2.566C418.36 3.75793 418.956 5.17335 418.956 6.81225V38.324C418.956 39.9629 418.36 41.3783 417.168 42.5702C415.976 43.7622 414.561 44.3581 412.922 44.3581H345.876V58.4378H408.005C409.644 58.4378 411.06 59.0338 412.251 60.2257C413.443 61.4177 414.039 62.8331 414.039 64.472V93.5253C414.039 95.1643 413.443 96.5797 412.251 97.7716C411.06 98.9635 409.644 99.5595 408.005 99.5595H345.876V113.639ZM490.095 113.639H558.929C560.568 113.639 561.983 114.235 563.175 115.427C564.367 116.619 564.963 118.034 564.963 119.673V151.185C564.963 152.824 564.367 154.239 563.175 155.431C561.983 156.623 560.568 157.219 558.929 157.219H442.492C440.853 157.219 439.438 156.623 438.246 155.431C437.054 154.239 436.458 152.824 436.458 151.185V6.81225C436.458 5.17335 437.054 3.75793 438.246 2.566C439.438 1.37406 440.853 0.778093 442.492 0.778093H557.141C558.78 0.778093 560.195 1.37406 561.387 2.566C562.579 3.75793 563.175 5.17335 563.175 6.81225V38.324C563.175 39.9629 562.579 41.3783 561.387 42.5702C560.195 43.7622 558.78 44.3581 557.141 44.3581H490.095V58.4378H552.224C553.863 58.4378 555.279 59.0338 556.471 60.2257C557.663 61.4177 558.259 62.8331 558.259 64.472V93.5253C558.259 95.1643 557.663 96.5797 556.471 97.7716C555.279 98.9635 553.863 99.5595 552.224 99.5595H490.095V113.639Z" fill="#1E1E1E"/>
</svg>

<svg width="565" height="158" fill="none" xmlns="http://www.w3.org/2000/svg"><path d="M6.56.778h112.638c1.639 0 3.055.596 4.247 1.788 1.192 1.192 1.788 2.607 1.788 4.246v33.97c0 1.64-.596 3.055-1.788 4.247-1.192 1.191-2.608 1.787-4.247 1.787H55.281v16.539h59.448c1.639 0 3.054.596 4.246 1.787 1.192 1.192 1.788 2.608 1.788 4.247v33.746c0 1.639-.596 3.055-1.788 4.247-1.192 1.191-2.607 1.787-4.246 1.787H55.281v42.016c0 1.639-.596 3.054-1.788 4.246-1.192 1.192-2.607 1.788-4.246 1.788H6.56c-1.64 0-3.054-.596-4.246-1.788-1.192-1.192-1.788-2.607-1.788-4.246V6.812c0-1.639.596-3.054 1.788-4.246C3.507 1.374 4.922.778 6.56.778ZM281.47 149.844c.447.894.671 1.863.671 2.905 0 1.043-.522 2.086-1.564 3.129-.894.894-2.012 1.341-3.353 1.341h-45.815c-4.618 0-7.822-2.011-9.61-6.034l-19.22-42.686h-9.163v42.686c0 1.639-.595 3.054-1.787 4.246-1.192 1.192-2.608 1.788-4.247 1.788h-43.803c-1.639 0-3.055-.596-4.246-1.788-1.192-1.192-1.788-2.607-1.788-4.246V6.812c0-1.639.596-3.054 1.788-4.246 1.191-1.192 2.607-1.788 4.246-1.788h66.152c21.455 0 38.216 4.842 50.285 14.527 12.068 9.535 18.102 23.317 18.102 41.345 0 17.879-8.045 31.959-24.136 42.239l27.488 50.955ZM193.415 42.347v23.69h16.315c3.278 0 5.811-1.044 7.599-3.13 1.788-2.234 2.681-4.99 2.681-8.268 0-3.278-.893-6.11-2.681-8.493-1.639-2.533-4.172-3.8-7.599-3.8h-16.315Zm152.461 71.292h68.834c1.639 0 3.054.596 4.246 1.788 1.192 1.192 1.788 2.607 1.788 4.246v31.512c0 1.639-.596 3.054-1.788 4.246-1.192 1.192-2.607 1.788-4.246 1.788H298.273c-1.639 0-3.054-.596-4.246-1.788-1.192-1.192-1.788-2.607-1.788-4.246V6.812c0-1.639.596-3.054 1.788-4.246 1.192-1.192 2.607-1.788 4.246-1.788h114.649c1.639 0 3.054.596 4.246 1.788 1.192 1.192 1.788 2.607 1.788 4.246v31.512c0 1.639-.596 3.054-1.788 4.246-1.192 1.192-2.607 1.788-4.246 1.788h-67.046v14.08h62.129c1.639 0 3.055.596 4.246 1.788 1.192 1.192 1.788 2.607 1.788 4.246v29.053c0 1.64-.596 3.055-1.788 4.247-1.191 1.191-2.607 1.787-4.246 1.787h-62.129v14.08Zm144.219 0h68.834c1.639 0 3.054.596 4.246 1.788 1.192 1.192 1.788 2.607 1.788 4.246v31.512c0 1.639-.596 3.054-1.788 4.246-1.192 1.192-2.607 1.788-4.246 1.788H442.492c-1.639 0-3.054-.596-4.246-1.788-1.192-1.192-1.788-2.607-1.788-4.246V6.812c0-1.639.596-3.054 1.788-4.246 1.192-1.192 2.607-1.788 4.246-1.788h114.649c1.639 0 3.054.596 4.246 1.788 1.192 1.192 1.788 2.607 1.788 4.246v31.512c0 1.639-.596 3.054-1.788 4.246-1.192 1.192-2.607 1.788-4.246 1.788h-67.046v14.08h62.129c1.639 0 3.055.596 4.247 1.788 1.192 1.192 1.788 2.607 1.788 4.246v29.053c0 1.64-.596 3.055-1.788 4.247-1.192 1.191-2.608 1.787-4.247 1.787h-62.129v14.08Z" fill="#1E1E1E"/></svg>
